svg/scale-up.svg

<?xml version="1.0" encoding="UTF-8"?>
<svg xmlns="http://www.w3.org/2000/svg" xmlns:xlink="http://www.w3.org/1999/xlink" width="32" height="32" viewBox="0 0 32 32">
<path fill-rule="nonzero" fill="rgb(0%, 0%, 0%)" fill-opacity="1" d="M 26.722656 0 L 5.753906 0 C 2.84375 0.0078125 0.488281 2.363281 0.476562 5.273438 L 0.476562 13.621094 C 1.144531 13.191406 1.925781 12.960938 2.71875 12.964844 L 14.863281 12.964844 C 15.691406 12.964844 16.5 13.210938 17.183594 13.671875 L 23.542969 7.308594 L 21.402344 5.167969 L 26.800781 5.167969 L 26.800781 10.566406 L 24.65625 8.421875 L 18.300781 14.777344 C 18.777344 15.472656 19.035156 16.292969 19.035156 17.136719 L 19.035156 29.28125 C 19.03125 29.648438 18.984375 30.015625 18.890625 30.371094 C 18.78125 30.777344 18.605469 31.167969 18.378906 31.523438 L 26.726562 31.523438 C 29.632812 31.503906 31.984375 29.152344 32.003906 26.246094 L 32.003906 5.273438 C 31.992188 2.363281 29.632812 0.0078125 26.722656 0 M 14.863281 14.414062 L 2.722656 14.414062 C 2.347656 14.414062 1.976562 14.492188 1.632812 14.644531 C 0.640625 15.078125 0 16.054688 0 17.136719 L 0 29.277344 C 0 30 0.285156 30.691406 0.796875 31.203125 C 1.308594 31.714844 2 32 2.722656 32 L 14.863281 32 C 15.414062 32 15.953125 31.832031 16.40625 31.519531 C 16.828125 31.234375 17.15625 30.835938 17.355469 30.367188 C 17.507812 30.023438 17.585938 29.652344 17.585938 29.277344 L 17.585938 17.136719 C 17.585938 16.414062 17.300781 15.722656 16.789062 15.210938 C 16.277344 14.699219 15.585938 14.414062 14.863281 14.414062 M 14.863281 14.414062 "/>
</svg>

<svg role="img" viewBox="0 0 32 32" height="32" width="32" xmlns="http://www.w3.org/2000/svg"><path d="M26.723 0H5.753A5.292 5.292 0 0 0 .478 5.273v8.348a4.112 4.112 0 0 1 2.242-.656h12.144a4.15 4.15 0 0 1 2.32.707l6.36-6.363-2.14-2.141H26.8v5.398l-2.145-2.144-6.355 6.355c.476.696.734 1.516.734 2.36V29.28c-.004.367-.05.735-.144 1.09-.11.406-.286.797-.512 1.152h8.348a5.308 5.308 0 0 0 5.277-5.277V5.273A5.296 5.296 0 0 0 26.723 0m-11.86 14.414H2.723c-.375 0-.746.078-1.09.23A2.719 2.719 0 0 0 0 17.138v12.14A2.72 2.72 0 0 0 2.723 32h12.14c.551 0 1.09-.168 1.543-.48a2.64 2.64 0 0 0 .95-1.153c.152-.344.23-.715.23-1.09v-12.14a2.72 2.72 0 0 0-2.723-2.723m0 0"/></svg>
